svg/fluentui-system-icons/ic_fluent_tv_usb_20_filled.svg

<svg width="20" height="20" viewBox="0 0 20 20" fill="none" xmlns="http://www.w3.org/2000/svg">
<path d="M2 6C2 4.89543 2.89543 4 4 4H16C17.1046 4 18 4.89543 18 6V7.26756C17.7058 7.09739 17.3643 7 17 7H15C13.8954 7 13 7.89543 13 9V10.2676C12.4022 10.6134 12 11.2597 12 12V14.1788C12 14.4634 12.0607 14.7432 12.1764 15H4C2.89543 15 2 14.1046 2 13V6ZM17 8C17.5523 8 18 8.44772 18 9V11C18.5523 11 19 11.4477 19 12V14.2061C19 14.4174 18.933 14.6233 18.8087 14.7942L17.5 16.5938V18C17.5 18.5523 17.0523 19 16.5 19H15.5C14.9477 19 14.5 18.5523 14.5 18V16.5938L13.1871 14.7611C13.0654 14.5913 13 14.3877 13 14.1788V12C13 11.4477 13.4477 11 14 11V9C14 8.44772 14.4477 8 15 8H17ZM17 11V9H15V11H17ZM13.5 16.915L12.8445 16H5.5C5.22386 16 5 16.2239 5 16.5C5 16.7761 5.22386 17 5.5 17H13.5V16.915ZM13.1871 14.7611L12.8537 15Z" fill="#212121"/>
</svg>

<svg xmlns="http://www.w3.org/2000/svg" width="20" height="20"><path d="M2 6a2 2 0 0 1 2-2h12a2 2 0 0 1 2 2v1.268A1.99 1.99 0 0 0 17 7h-2a2 2 0 0 0-2 2v1.268A2 2 0 0 0 12 12v2.179a2 2 0 0 0 .176.821H4a2 2 0 0 1-2-2V6Zm15 2a1 1 0 0 1 1 1v2a1 1 0 0 1 1 1v2.206a1 1 0 0 1-.191.588l-1.309 1.8V18a1 1 0 0 1-1 1h-1a1 1 0 0 1-1-1v-1.406l-1.313-1.833A1 1 0 0 1 13 14.18V12a1 1 0 0 1 1-1V9a1 1 0 0 1 1-1h2Zm0 3V9h-2v2h2Zm-3.5 5.915L12.845 16H5.5a.5.5 0 0 0 0 1h8v-.085Zm-.313-2.154-.333.239Z"/></svg>
